packages/kaspersky-hexa-ui-icons/src/iconsSVGs/24/KiraColor.svg

<svg viewBox="0 0 24 24" xmlns="http://www.w3.org/2000/svg" xmlns:xlink="http://www.w3.org/1999/xlink" width="24" height="24" fill="none">
	<defs>
		<linearGradient id="paint_linear_0" x1="16.0191002" x2="3.4050827" y1="-1.40198421" y2="11.4293289" gradientUnits="userSpaceOnUse">
			<stop stop-color="var(--icon--ai--violet, rgb(195,61,170))" offset="0" stop-opacity="1" />
			<stop stop-color="var(--icon--ai--marina, rgb(66,105,231))" offset="1" stop-opacity="1" />
		</linearGradient>
		<linearGradient id="paint_linear_1" x1="2.00659156" x2="10.4952364" y1="12.0144081" y2="12.0144081" gradientUnits="userSpaceOnUse">
			<stop stop-color="var(--icon--ai--green, rgb(41,204,177))" offset="0" stop-opacity="1" />
			<stop stop-color="var(--icon--ai--green_0, rgb(41,204,177))" offset="1" stop-opacity="0" />
		</linearGradient>
	</defs>
	<rect id="ai_mode" width="24" height="24" x="0.000000" y="0.000000" />
	<path id="color" d="M14.4608 2.19339C14.8592 1.90232 15.4112 1.94569 15.7596 2.29495C16.1077 2.64438 16.1494 3.19631 15.8573 3.59378L14.6952 5.17288C13.6034 6.65793 13.2198 8.49158 13.5438 10.2217C13.6313 10.6866 13.7704 11.1446 13.9598 11.586C14.1524 12.0347 14.3969 12.4672 14.6952 12.8731L15.2977 13.6924C15.8708 13.0894 16.4032 12.4942 16.8895 11.919C17.7442 10.9086 18.4561 9.95949 18.9852 9.13186C19.4624 8.38531 19.7631 7.7821 19.9042 7.35061C19.4727 7.49185 18.8698 7.79371 18.1239 8.27053C17.3634 8.75667 16.4991 9.39496 15.5799 10.1582C15.3545 9.2928 15.3907 8.37553 15.6893 7.52737C16.1618 7.17595 16.6166 6.86093 17.0467 6.58596C17.8737 6.05732 18.6575 5.64779 19.3329 5.4346C19.6693 5.32845 20.0327 5.25272 20.3885 5.26565C20.7513 5.27899 21.1831 5.38937 21.5253 5.73147C21.7719 5.97837 21.8961 6.27221 21.952 6.55276C21.9735 6.66071 21.9864 6.76645 21.9901 6.86721C21.9917 6.91143 21.9921 6.95662 21.9911 7.001C21.9881 7.13494 21.9737 7.26936 21.951 7.40237C21.9207 7.58006 21.8753 7.7554 21.8221 7.92385C21.6089 8.59917 21.1993 9.38319 20.6708 10.21C20.5468 10.404 20.4125 10.6015 20.2723 10.8047C20.2479 10.8402 20.224 10.8764 20.1991 10.9121C20.0845 11.0762 19.965 11.243 19.8407 11.4121C19.7851 11.4879 19.7282 11.5639 19.6708 11.6407C19.5638 11.7832 19.453 11.9268 19.3397 12.0723C19.2662 12.1669 19.1922 12.2627 19.1161 12.3584C19.0723 12.4133 19.0278 12.4682 18.9833 12.5235C18.1025 13.6177 17.0614 14.7813 15.9032 15.9395C15.2353 16.6073 14.5636 17.234 13.9071 17.8164L13.9081 17.8174C13.8991 17.8254 13.8897 17.8329 13.8807 17.8408C13.4512 18.2212 13.0271 18.5809 12.6122 18.918C12.5241 18.9896 12.4366 19.0604 12.3495 19.1299C12.2483 19.2105 12.1476 19.2895 12.0477 19.3672C11.6561 19.6724 11.275 19.9552 10.9071 20.2129C10.8568 20.2481 10.8064 20.2822 10.7567 20.3164C10.5575 20.4536 10.364 20.5854 10.1737 20.7071C9.34682 21.2356 8.56291 21.6452 7.88756 21.8584C7.55116 21.9646 7.18675 22.0393 6.83092 22.0264C6.46849 22.013 6.03706 21.903 5.69518 21.5616C5.35318 21.2195 5.24274 20.7875 5.22936 20.4248C5.21643 20.069 5.2922 19.7056 5.3983 19.3692C5.61145 18.6938 6.02109 17.91 6.54967 17.083C6.8181 16.6631 7.1243 16.2192 7.46569 15.7588C8.32075 15.4417 9.25006 15.3909 10.1278 15.6114C9.36287 16.5322 8.72225 17.3974 8.23522 18.1592C7.75827 18.9053 7.45651 19.509 7.3153 19.9405C7.348 19.9298 7.38122 19.9169 7.41588 19.9043C7.60494 19.8359 7.82325 19.741 8.06823 19.6162C8.37087 19.462 8.71531 19.2642 9.09655 19.0205C9.94176 18.4802 10.9128 17.749 11.9471 16.8701C12.5115 16.3908 13.0949 15.8678 13.6854 15.3057L12.7762 14.6641C12.3896 14.3913 11.9802 14.1662 11.5565 13.9873C11.1989 13.8364 10.8307 13.7182 10.4569 13.6338C8.70044 13.239 6.81543 13.5825 5.28209 14.6641L3.58288 15.8633C3.18644 16.1426 2.64585 16.0966 2.30163 15.7549C1.95772 15.4129 1.9085 14.8729 2.18541 14.4746L3.39635 12.7344C4.94738 10.5038 4.94723 7.54321 3.39635 5.31253L2.18541 3.57229C1.90663 3.17124 1.95906 2.62649 2.30846 2.28518C2.65783 1.9445 3.20241 1.90565 3.59655 2.19339L5.19323 3.36038C7.47776 5.03014 10.5806 5.03026 12.8651 3.36038L14.4608 2.19339ZM20.8465 14.4688C20.3933 14.1538 19.7703 14.2657 19.4549 14.7188C18.9952 15.3794 18.1157 16.3627 17.1356 17.3418C16.1605 18.3159 15.1481 19.2234 14.453 19.7422C14.0107 20.0725 13.9199 20.6991 14.2499 21.1416C14.5803 21.5838 15.2078 21.675 15.6503 21.3448C16.4549 20.7441 17.5431 19.7614 18.5487 18.7569C19.5495 17.7571 20.5321 16.6724 21.0965 15.8614C21.4119 15.4082 21.2994 14.7843 20.8465 14.4688Z" fill="url(#paint_linear_0)" fill-rule="evenodd" />
	<path id="color" d="M14.4608 2.19339C14.8592 1.90232 15.4112 1.94569 15.7596 2.29495C16.1077 2.64438 16.1494 3.19631 15.8573 3.59378L14.6952 5.17288C13.6034 6.65793 13.2198 8.49158 13.5438 10.2217C13.6313 10.6866 13.7704 11.1446 13.9598 11.586C14.1524 12.0347 14.3969 12.4672 14.6952 12.8731L15.2977 13.6924C15.8708 13.0894 16.4032 12.4942 16.8895 11.919C17.7442 10.9086 18.4561 9.95949 18.9852 9.13186C19.4624 8.38531 19.7631 7.7821 19.9042 7.35061C19.4727 7.49185 18.8698 7.79371 18.1239 8.27053C17.3634 8.75667 16.4991 9.39496 15.5799 10.1582C15.3545 9.2928 15.3907 8.37553 15.6893 7.52737C16.1618 7.17595 16.6166 6.86093 17.0467 6.58596C17.8737 6.05732 18.6575 5.64779 19.3329 5.4346C19.6693 5.32845 20.0327 5.25272 20.3885 5.26565C20.7513 5.27899 21.1831 5.38937 21.5253 5.73147C21.7719 5.97837 21.8961 6.27221 21.952 6.55276C21.9735 6.66071 21.9864 6.76645 21.9901 6.86721C21.9917 6.91143 21.9921 6.95662 21.9911 7.001C21.9881 7.13494 21.9737 7.26936 21.951 7.40237C21.9207 7.58006 21.8753 7.7554 21.8221 7.92385C21.6089 8.59917 21.1993 9.38319 20.6708 10.21C20.5468 10.404 20.4125 10.6015 20.2723 10.8047C20.2479 10.8402 20.224 10.8764 20.1991 10.9121C20.0845 11.0762 19.965 11.243 19.8407 11.4121C19.7851 11.4879 19.7282 11.5639 19.6708 11.6407C19.5638 11.7832 19.453 11.9268 19.3397 12.0723C19.2662 12.1669 19.1922 12.2627 19.1161 12.3584C19.0723 12.4133 19.0278 12.4682 18.9833 12.5235C18.1025 13.6177 17.0614 14.7813 15.9032 15.9395C15.2353 16.6073 14.5636 17.234 13.9071 17.8164L13.9081 17.8174C13.8991 17.8254 13.8897 17.8329 13.8807 17.8408C13.4512 18.2212 13.0271 18.5809 12.6122 18.918C12.5241 18.9896 12.4366 19.0604 12.3495 19.1299C12.2483 19.2105 12.1476 19.2895 12.0477 19.3672C11.6561 19.6724 11.275 19.9552 10.9071 20.2129C10.8568 20.2481 10.8064 20.2822 10.7567 20.3164C10.5575 20.4536 10.364 20.5854 10.1737 20.7071C9.34682 21.2356 8.56291 21.6452 7.88756 21.8584C7.55116 21.9646 7.18675 22.0393 6.83092 22.0264C6.46849 22.013 6.03706 21.903 5.69518 21.5616C5.35318 21.2195 5.24274 20.7875 5.22936 20.4248C5.21643 20.069 5.2922 19.7056 5.3983 19.3692C5.61145 18.6938 6.02109 17.91 6.54967 17.083C6.8181 16.6631 7.1243 16.2192 7.46569 15.7588C8.32075 15.4417 9.25006 15.3909 10.1278 15.6114C9.36287 16.5322 8.72225 17.3974 8.23522 18.1592C7.75827 18.9053 7.45651 19.509 7.3153 19.9405C7.348 19.9298 7.38122 19.9169 7.41588 19.9043C7.60494 19.8359 7.82325 19.741 8.06823 19.6162C8.37087 19.462 8.71531 19.2642 9.09655 19.0205C9.94176 18.4802 10.9128 17.749 11.9471 16.8701C12.5115 16.3908 13.0949 15.8678 13.6854 15.3057L12.7762 14.6641C12.3896 14.3913 11.9802 14.1662 11.5565 13.9873C11.1989 13.8364 10.8307 13.7182 10.4569 13.6338C8.70044 13.239 6.81543 13.5825 5.28209 14.6641L3.58288 15.8633C3.18644 16.1426 2.64585 16.0966 2.30163 15.7549C1.95772 15.4129 1.9085 14.8729 2.18541 14.4746L3.39635 12.7344C4.94738 10.5038 4.94723 7.54321 3.39635 5.31253L2.18541 3.57229C1.90663 3.17124 1.95906 2.62649 2.30846 2.28518C2.65783 1.9445 3.20241 1.90565 3.59655 2.19339L5.19323 3.36038C7.47776 5.03014 10.5806 5.03026 12.8651 3.36038L14.4608 2.19339ZM20.8465 14.4688C20.3933 14.1538 19.7703 14.2657 19.4549 14.7188C18.9952 15.3794 18.1157 16.3627 17.1356 17.3418C16.1605 18.3159 15.1481 19.2234 14.453 19.7422C14.0107 20.0725 13.9199 20.6991 14.2499 21.1416C14.5803 21.5838 15.2078 21.675 15.6503 21.3448C16.4549 20.7441 17.5431 19.7614 18.5487 18.7569C19.5495 17.7571 20.5321 16.6724 21.0965 15.8614C21.4119 15.4082 21.2994 14.7843 20.8465 14.4688Z" fill="url(#paint_linear_1)" fill-rule="evenodd" />
</svg>

<svg xmlns="http://www.w3.org/2000/svg" width="24" height="24" fill="none" viewBox="0 0 24 24"><defs><linearGradient id="a" x1="16" x2="3" y1="-1" y2="11" gradientUnits="userSpaceOnUse"><stop offset="0" stop-color="var(--icon--ai--violet, rgb(195,61,170))"/><stop offset="1" stop-color="var(--icon--ai--marina, rgb(66,105,231))"/></linearGradient><linearGradient id="b" x1="2" x2="10" y1="12" y2="12" gradientUnits="userSpaceOnUse"><stop offset="0" stop-color="var(--icon--ai--green, rgb(41,204,177))"/><stop offset="1" stop-color="var(--icon--ai--green_0, rgb(41,204,177))" stop-opacity="0"/></linearGradient></defs><path fill="url(#a)" fill-rule="evenodd" d="M14.4608 2.1934a1.001 1.001 0 0 1 1.2988.1016c.3481.3494.3898.9013.0977 1.2988l-1.1621 1.579c-1.0918 1.4851-1.4754 3.3188-1.1514 5.0489.0875.4649.2266.9229.416 1.3643.1926.4487.4371.8812.7354 1.2871l.6025.8193a41 41 0 0 0 1.5918-1.7734c.8547-1.0104 1.5666-1.9595 2.0957-2.7871.4772-.7466.7779-1.3498.919-1.7813-.4315.1413-1.0344.4431-1.7803.92-.7605.486-1.6248 1.1244-2.544 1.8876a4.507 4.507 0 0 1 .1094-2.6308c.4725-.3514.9273-.6665 1.3574-.9414.827-.5287 1.6108-.9382 2.2862-1.1514.3364-.1061.6998-.1819 1.0556-.169.3628.0134.7946.1238 1.1368.4659.2466.2469.3708.5407.4267.8213a2 2 0 0 1 .0391.4482 2.76 2.76 0 0 1-.0401.4014c-.0303.1777-.0757.353-.1289.5214-.2132.6754-.6228 1.4594-1.1513 2.2862-.124.194-.2583.3915-.3985.5947-.0244.0355-.0483.0717-.0732.1074a25 25 0 0 1-.3584.5c-.0556.0758-.1125.1518-.1699.2286-.107.1425-.2178.2861-.3311.4316-.0735.0946-.1475.1904-.2236.2861q-.0659.0823-.1328.1651c-.8808 1.0942-1.9219 2.2578-3.0801 3.416a46 46 0 0 1-1.9961 1.8769l.001.001c-.009.008-.0184.0155-.0274.0234a39 39 0 0 1-1.5312 1.2891 33 33 0 0 1-.3018.2373c-.3916.3052-.7727.588-1.1406.8457-.0503.0352-.1007.0693-.1504.1035-.1992.1372-.3927.269-.583.3907-.8269.5285-1.6108.9381-2.2861 1.1513-.3364.1062-.7008.1809-1.0567.168-.3624-.0134-.7938-.1234-1.1357-.4648-.342-.3421-.4525-.7741-.4658-1.1368-.013-.3558.0628-.7192.1689-1.0556.2131-.6754.6228-1.4592 1.1514-2.2862.2684-.4199.5746-.8638.916-1.3242a4.505 4.505 0 0 1 2.6621-.1474c-.765.9208-1.4055 1.786-1.8926 2.5478-.477.7461-.7787 1.3498-.9199 1.7813.0327-.0107.066-.0236.1006-.0362.189-.0684.4074-.1633.6523-.2881.3027-.1542.6471-.352 1.0284-.5957.8452-.5403 1.8162-1.2715 2.8505-2.1504a41.3 41.3 0 0 0 1.7383-1.5644l-.9092-.6416a6.5 6.5 0 0 0-1.2197-.6768 6.53 6.53 0 0 0-1.0996-.3535c-1.7565-.3948-3.6415-.0513-5.1748 1.0303l-1.6992 1.1992a1.001 1.001 0 0 1-1.2813-.1084 1.0006 1.0006 0 0 1-.1162-1.2803l1.211-1.7402c1.551-2.2306 1.5508-5.1912 0-7.4219l-1.211-1.7402a1.0014 1.0014 0 0 1 .123-1.2871 1.0004 1.0004 0 0 1 1.2882-.0918l1.5966 1.167c2.2846 1.6697 5.3874 1.6699 7.6719 0zm6.3857 12.2754c-.4532-.315-1.0762-.2031-1.3916.25-.4597.6606-1.3392 1.6439-2.3193 2.623-.9751.9741-1.9875 1.8816-2.6826 2.4004-.4423.3303-.5331.9569-.2031 1.3994.3304.4422.9579.5334 1.4004.2032.8046-.6007 1.8928-1.5834 2.8984-2.5879 1.0008-.9998 1.9834-2.0845 2.5478-2.8955.3154-.4532.2029-1.0771-.25-1.3926"/><path fill="url(#b)" fill-rule="evenodd" d="M14.4608 2.1934a1.001 1.001 0 0 1 1.2988.1016c.3481.3494.3898.9013.0977 1.2988l-1.1621 1.579c-1.0918 1.4851-1.4754 3.3188-1.1514 5.0489.0875.4649.2266.9229.416 1.3643.1926.4487.4371.8812.7354 1.2871l.6025.8193a41 41 0 0 0 1.5918-1.7734c.8547-1.0104 1.5666-1.9595 2.0957-2.7871.4772-.7466.7779-1.3498.919-1.7813-.4315.1413-1.0344.4431-1.7803.92-.7605.486-1.6248 1.1244-2.544 1.8876a4.507 4.507 0 0 1 .1094-2.6308c.4725-.3514.9273-.6665 1.3574-.9414.827-.5287 1.6108-.9382 2.2862-1.1514.3364-.1061.6998-.1819 1.0556-.169.3628.0134.7946.1238 1.1368.4659.2466.2469.3708.5407.4267.8213a2 2 0 0 1 .0391.4482 2.76 2.76 0 0 1-.0401.4014c-.0303.1777-.0757.353-.1289.5214-.2132.6754-.6228 1.4594-1.1513 2.2862-.124.194-.2583.3915-.3985.5947-.0244.0355-.0483.0717-.0732.1074a25 25 0 0 1-.3584.5c-.0556.0758-.1125.1518-.1699.2286-.107.1425-.2178.2861-.3311.4316-.0735.0946-.1475.1904-.2236.2861q-.0659.0823-.1328.1651c-.8808 1.0942-1.9219 2.2578-3.0801 3.416a46 46 0 0 1-1.9961 1.8769l.001.001c-.009.008-.0184.0155-.0274.0234a39 39 0 0 1-1.5312 1.2891 33 33 0 0 1-.3018.2373c-.3916.3052-.7727.588-1.1406.8457-.0503.0352-.1007.0693-.1504.1035-.1992.1372-.3927.269-.583.3907-.8269.5285-1.6108.9381-2.2861 1.1513-.3364.1062-.7008.1809-1.0567.168-.3624-.0134-.7938-.1234-1.1357-.4648-.342-.3421-.4525-.7741-.4658-1.1368-.013-.3558.0628-.7192.1689-1.0556.2131-.6754.6228-1.4592 1.1514-2.2862.2684-.4199.5746-.8638.916-1.3242a4.505 4.505 0 0 1 2.6621-.1474c-.765.9208-1.4055 1.786-1.8926 2.5478-.477.7461-.7787 1.3498-.9199 1.7813.0327-.0107.066-.0236.1006-.0362.189-.0684.4074-.1633.6523-.2881.3027-.1542.6471-.352 1.0284-.5957.8452-.5403 1.8162-1.2715 2.8505-2.1504a41.3 41.3 0 0 0 1.7383-1.5644l-.9092-.6416a6.5 6.5 0 0 0-1.2197-.6768 6.53 6.53 0 0 0-1.0996-.3535c-1.7565-.3948-3.6415-.0513-5.1748 1.0303l-1.6992 1.1992a1.001 1.001 0 0 1-1.2813-.1084 1.0006 1.0006 0 0 1-.1162-1.2803l1.211-1.7402c1.551-2.2306 1.5508-5.1912 0-7.4219l-1.211-1.7402a1.0014 1.0014 0 0 1 .123-1.2871 1.0004 1.0004 0 0 1 1.2882-.0918l1.5966 1.167c2.2846 1.6697 5.3874 1.6699 7.6719 0zm6.3857 12.2754c-.4532-.315-1.0762-.2031-1.3916.25-.4597.6606-1.3392 1.6439-2.3193 2.623-.9751.9741-1.9875 1.8816-2.6826 2.4004-.4423.3303-.5331.9569-.2031 1.3994.3304.4422.9579.5334 1.4004.2032.8046-.6007 1.8928-1.5834 2.8984-2.5879 1.0008-.9998 1.9834-2.0845 2.5478-2.8955.3154-.4532.2029-1.0771-.25-1.3926"/></svg>
